X: 4
T:Drops of Brandy. ST.04
M:9/8
L:1/8
Q:120
S:Annonymous Staffordshire MS, Early 19thC.
R:Slip Jig
O:England
A:Staffordshire
Z:vmp.Tim Willets
K:G
d2c (BG)B (BG)B|d2c (BGB) (cBA)|d2c (BG)B (BG)B|c2B A2B cBA:|!
|:GBd edB gdB|GBd gdB cBA|GBd gdB gdB|c2B A2B cBA:|]
